!!!!SEGMENT: pl-kk--kk-i-382--094-002_richling--msza-na-3-glosy-et-in-terra.krn
!!!cenid: 18xx:1606
!!!COM: Richling
!!!COM-rismid: pe50045950
!!!CDT:
!!!CNT:
!!!OPR: Msza na 3 głosy
!!!OTL: Et in terra
!!!OMV: 002
!!!PDT:
!!!AGN: Sacred; Mass
!!!SMS-siglum: PL-Kk
!!!SMS-shelfmark: Kk.I.382
!!!SMS-shelfwork: 094-002 M
!!!SMS-variant:
!!!SMS-altvar:
!!!NIFC-rismid: 1001142972
!!!URL-scan: http://repozytorium.nifc.pl/skany/pl-kk-nut--i-382
!!!ONB-nifc: S/T1 od 0062, A/B1 od 0206, B2 od 0279. Części Mszy: 1. Kyrie, 2. Et in terra, 3. Tollite portas, 4. Patrem, 5. Sanctus, 6. Benedictus, 7. Agnus Dei, 8. Dona
**kern	**text	**kern	**text	**kern	**text
*part3	*part3	*part2	*part2	*part1	*part1
*staff3	*staff3	*staff2	*staff2	*staff1	*staff1
*Ibass	*	*Ibass	*	*Ivox	*
*I"[Basso II]	*	*I"[Basso I]	*	*I"[Canto]	*
*I'[B II]	*	*I'[B I]	*	*I'[S]	*
*	*	*	*	*ITrd7c12	*
*clefF4	*	*clefF4	*	*clefG2	*
*k[f#c#g#]	*	*k[f#c#g#]	*	*k[f#c#g#]	*
*A:	*	*A:	*	*A:	*
*M4/4	*	*M4/4	*	*M4/4	*
*met(c)	*	*met(c)	*	*met(c)	*
=1	=1	=1	=1	=1	=1
!	!	!	!	!LO:TX:t=P:problem:all\middle or right:global	!
!LO:TX:a:t=Allegro	!	!LO:TX:a:t=Gloria	!	!LO:TX:a:t=Allegro.	!
4.AA/	Et	4.E\	Et	4.c#\	Et
8AA/	in	8E#X\	in	8c#\	in
4D/	ter-	4F#\	ter-	8c#\L	ter-
.	.	.	.	8B\J	.
4BB/	-ra	4F#\	-ra	8c#\L	-ra
.	.	.	.	8d\J	.
=2	=2	=2	=2	=2	=2
4E\	pax	8F##X\L	pax	4B\	pax
.	.	8G#\J	.	.	.
4E\	ho-	8F##\L	ho-	8A#X\L	ho-
.	.	8G#\J	.	8B\J	.
(8E#X\L	-mi-	4A\	-mi-	4B\	-mi-
8F#\J	.	.	.	.	.
4D#X\)	-ni-	4A\	-ni-	8c#\L	-ni-
.	.	.	.	8B\J	.
=3	=3	=3	=3	=3	=3
4En\	-bus	4G#\	-bus	4B\	-bus
8E\	bo-	8E\	bo-	8G#/	bo-
!	!	!	!	!LO:SIC:v:l:s=-nae	!
8E\	-nae	8F#\	-nae	8A/	-ne
4E\	vo-	(8G#\L	vo-	8B/L	vo-
.	.	8F##X\J)	.	8A#X/	.
4E\	-lun-	(8G#\L	-lun-	8B/	-lun-
.	.	8A\J)	.	8c#/J	.
!LO:LB:g=original	!	!LO:LB:g=original	!	!LO:LB:g=original	!
=4	=4	=4	=4	=4	=4
4E\	-ta-	4B\	-ta-	4d\	-ta-
8AA/	-tis,	8A\	-tis	8c#\	-tis
8A\	lau-	8A\	Lau-	8A\	lau-
4A\	-da-	4A\	-da-	4A/	-da-
4A\	-mus	4A\	-mus	4A/	-mus
=5	=5	=5	=5	=5	=5
4D\	te,	4A\	te,	4f#\ 4d\	te
8A\	be-	8A\	be-	8A/	be-
8A\	-ne-	8A\	-ne-	8A/	-ne-
4A\	-di-	4A\	-di-	4A/	-di-
8A\	-ci-	8A\	-ci-	8A/	-ci-
8A\	-mus	8A\	-mus	8A/	-mus
=6	=6	=6	=6	=6	=6
4AA/	te	4c#\	te	4e\	te
8A\	a-	8A\	a-	8A/	a-
8A\	-do-	8A\	-do-	8A/	-do-
4E\	-ra-	4G#\	-ra-	4B\	-ra-
4E\	-mus	4G#\	-mus	4B\	-mus
!LO:LB:g=original	!	!LO:LB:g=original	!	!LO:LB:g=original	!
=7	=7	=7	=7	=7	=7
4E#X\	te	4G#\	te	4c#\	te
8r	.	8r	.	8r	.
8E#\	glo-	8G#\	glo-	8c#\	glo-
8F#\	-ri-	8A\	-ri-	8d\	-ri-
8F#\	-fi-	8A\	-fi-	8d\	-fi-
8En\	-ca-	8A\	-ca-	8c#\	-ca-
8D#X\	-mus	8A\	-mus	8c#\	-mus
=8	=8	=8	=8	=8	=8
4E\	te.	4G#\	te,	4B\	te,
4r	.	4r	.	4r	.
!	!	!LO:TX:a:t=V&colon;S&colon;	!	!	!
2r	.	2r	.	2r	.
!	!	!LO:PB:g=original	!	!	!
=9	=9	=9	=9	=9	=9
4.AA/	Quo-	4.E\	Quo-	4.c#\	Quo-
8AA/	-ni-	8E#X\	-ni-	8c#\	-ni-
4D/	-am	4F#\	-am	8c#\L	-am
.	.	.	.	8B\J	.
4BB/	tu	4F#\	tu	8c#\L	tu
.	.	.	.	8d\J	.
=10	=10	=10	=10	=10	=10
4E\	so-	8F##X\L	so-	4B\	so-
.	.	8G#\J	.	.	.
4E\	-lus	8F##\L	-lus	8A#X\L	-lus
.	.	8G#\J	.	8B\J	.
(8E#X\L	San-	4A\	san-	4B\	san-
8F#\J)	.	.	.	.	.
4D#X\	-ctus	4A\	-ctus	8c#\L	-ctus
.	.	.	.	8B\J	.
!LO:LB:g=original	!	!	!	!LO:LB:g=original	!
=11	=11	=11	=11	=11	=11
(8E\L	Do-	(8G#\L	Do-	4B\	Do-
8F#\J)	.	8A\J)	.	.	.
8G#\L	-mi-	8B\L	-mi-	8d\	-mi-
8A\J	-nus	8A\J	-(nus)	8c#\	-nus
4D\	Je-	4F#\	Je-	8B\L	Je-
.	.	.	.	8c#\J	.
4D#X\	-su	4F#\	-su	8B\L	-su
.	.	.	.	8A\J	.
=12	=12	=12	=12	=12	=12
4E\	Chri-	4E\	Chri-	4G#/	Chri-
4E\	-ste.	4E\	-ste,	4E/	-ste.
4r	.	2r	.	2r	.
4E\	Cum	.	.	.	.
=13	=13	=13	=13	=13	=13
!	!	!LO:TX:a:t=1.	!	!	!
4.A\	San-	1r	.	2r	.
8G#\	-cto	.	.	.	.
(8F#\L	Spi-	.	.	4r	.
8E\J)	.	.	.	.	.
(8D\L	-ri-	.	.	4A/	Cum
8C#\J)	.	.	.	.	.
!	!	!LO:LB:g=original	!	!	!
=14	=14	=14	=14	=14	=14
(8D\L	-tu	2r	.	4.e\	San-
8C#\J)	.	.	.	.	.
4BB\	in	.	.	.	.
.	.	.	.	8d\	-cto
4E\	glo-	4r	.	8c#\L	Spi-
.	.	.	.	8B\J	.
8D/	-ri-	4E\	Cum	8A\L	-ri-
8D/	-a	.	.	8G#\J	.
!LO:LB:g=original	!	!	!	!LO:LB:g=original	!
=15	=15	=15	=15	=15	=15
4C#/	De-	4.A\	san-	8A/L	-tu
.	.	.	.	8E/J	.
4AA/	-i	.	.	4c#\	in
.	.	8G#\	-cto	.	.
4r	.	8F#\L	Spi-	4d\	glo-
.	.	8E\J	.	.	.
4AA/	in	8D\L	-ri-	8e\	-ri-
.	.	8C#\J	.	8e\	-a
=16	=16	=16	=16	=16	=16
4D\	glo-	4D\	-tu	4f#\	De-
4D\	-ri-	4A\	in	[8f#\	-i
.	.	.	.	8f#\]	.
4D\	-a	4A\	glo-	4f\	Pa-
8D\	De-	8B\	-ri-	4f\	-tris
8D\	-i	8B\	-a	.	.
=17	=17	=17	=17	=17	=17
4A\	Pa-	4c#\	De-	4e\	A-
4A\	-tris,	4c#\	-i	4e\	-men
4c#\	A-	2r	.	2r	.
4A\	-men,	.	.	.	.
!	!	!	!	!LO:LB:g=original	!
=18	=18	=18	=18	=18	=18
*	*	*2\right	*	*2\right	*
4E\	A-	[2G#\	A-	[2B\	A-
4E\	-men,	.	.	.	.
2r	.	8G#\L]	.	8B\L]	.
.	.	8A\	.	8c#\	.
.	.	8F#\	.	8d\	.
.	.	8G#\J	.	8e\J	.
!LO:LB:g=original	!	!LO:LB:g=original	!	!	!
=19	=19	=19	=19	=19	=19
(2.AA/	A-	4A\	-men,	4c#\	-men,
.	.	4r	.	4r	.
.	.	(4E\	A-	4c#\	A-
4A\)	.	4D#X\)	.	4B#X\	.
=20	=20	=20	=20	=20	=20
1AA/	-men.	1E\	-men.	1c#/	-men.
==	==	==	==	==	==
*-	*-	*-	*-	*-	*-
!!!system-decoration: [(s1,s2,s3)]
!!!EED: Leszek Kubiak
!!!EST: 2021-03-26
!!!AIN: 2 bass 1 vox
!!!ENC: Katarzyna Serwa
!!!END: 2021-03-06
